source/img/icon-button-right.svg

<svg viewBox="0 0 14 21" fill="none" xmlns="http://www.w3.org/2000/svg">
<g>
<path d="M3.06949 19.3693C3.16815 19.481 3.28536 19.5695 3.41439 19.63C3.54343 19.6904 3.68176 19.7216 3.82146 19.7216C3.96117 19.7216 4.0995 19.6904 4.22853 19.63C4.35757 19.5695 4.47477 19.481 4.57344 19.3693L11.6343 11.398C11.7131 11.3092 11.7756 11.2038 11.8182 11.0878C11.8609 10.9717 11.8828 10.8473 11.8828 10.7217C11.8828 10.5961 11.8609 10.4717 11.8182 10.3556C11.7756 10.2396 11.7131 10.1342 11.6343 10.0454L4.57344 2.07408C4.15709 1.60405 3.48584 1.60405 3.06949 2.07408C2.65314 2.54411 3.32374 3.3591 3.74009 3.82913L9.82453 10.7217L3.41439 17.972C3.00654 18.4324 2.65314 18.9089 3.06949 19.3693Z" fill="currentColor"/>
</g>
</svg>

<svg viewBox="0 0 14 21" fill="none" xmlns="http://www.w3.org/2000/svg"><path d="M3.07 19.37c.098.111.215.2.344.26a.959.959 0 00.815 0c.129-.06.246-.149.344-.26l7.061-7.972a.971.971 0 00.184-.31 1.062 1.062 0 000-.732.971.971 0 00-.184-.31l-7.06-7.972a.978.978 0 00-1.505 0c-.416.47.255 1.285.671 1.755l6.085 6.893-6.41 7.25c-.408.46-.762.937-.346 1.397z" fill="currentColor"/></svg>
